img/svg/youtube.svg

<svg width="50" height="50" viewBox="0 0 50 50" fill="none" xmlns="http://www.w3.org/2000/svg">
<path fill-rule="evenodd" clip-rule="evenodd" d="M0.354657 18.205C0.120117 19.7611 0.120117 21.619 0.120117 25.3347C0.120117 26.5287 0.120117 27.5309 0.1279 28.3928C0.220203 30.2076 0.379187 32.2804 0.653022 34.0373C0.963333 35.3904 1.40295 36.6927 1.95831 37.9307C2.79016 39.1066 4.02542 39.967 5.46543 40.3544C9.36473 41.4059 25 41.4059 25 41.4059C25 41.4059 40.6353 41.4059 44.5346 40.3544C46.6858 39.7757 48.3801 38.1415 48.9551 35.9763C49.9999 32.0517 49.9999 23.8634 49.9999 23.8634C49.9999 23.8634 49.9999 20.7432 49.7542 17.4318C49.0329 13.6127 47.2897 10.1662 44.817 7.3847C44.7238 7.35479 44.6297 7.32701 44.5346 7.30145C40.6354 6.24988 25 6.24988 25 6.24988C25 6.24988 9.47573 6.24988 5.50747 7.29027C2.82308 10.2736 0.98332 14.034 0.354657 18.205ZM32.9545 23.8636L19.8864 16.4291V31.2978L32.9545 23.8636Z" fill="white"/>
</svg>

<svg width="50" height="50" fill="none" xmlns="http://www.w3.org/2000/svg"><path fill-rule="evenodd" clip-rule="evenodd" d="M.355 18.205C.12 19.761.12 21.619.12 25.335c0 1.194 0 2.196.008 3.058.092 1.815.251 3.887.525 5.644a20.95 20.95 0 001.305 3.894 6.278 6.278 0 003.507 2.423C9.365 41.406 25 41.406 25 41.406s15.635 0 19.535-1.052c2.15-.578 3.845-2.212 4.42-4.378C50 32.052 50 23.863 50 23.863s0-3.12-.246-6.431a20.962 20.962 0 00-4.937-10.047 6.136 6.136 0 00-.282-.084C40.635 6.25 25 6.25 25 6.25s-15.524 0-19.493 1.04A20.965 20.965 0 00.355 18.205zm32.6 5.659l-13.069-7.435v14.869l13.069-7.434z" fill="#fff"/></svg>
